static/img/kroki/ab6e7082870316571215f8f197caa63f.svg

<?xml version="1.0" encoding="us-ascii" standalone="no"?><svg xmlns="http://www.w3.org/2000/svg" xmlns:xlink="http://www.w3.org/1999/xlink" contentStyleType="text/css" height="152px" preserveAspectRatio="none" style="width:256px;height:152px;" version="1.1" viewBox="0 0 256 152" width="256px" zoomAndPan="magnify"><defs/><g><!--class kubernetes_cluster--><g id="elem_kubernetes_cluster"><rect codeLine="22" fill="#3D176E" height="39.7891" id="kubernetes_cluster" rx="2.5" ry="2.5" style="stroke:#000D19;stroke-width:0.5;" width="201" x="27.5" y="7"/><ellipse cx="42.5" cy="26.8945" fill="#ADD1B2" rx="11" ry="11" style="stroke:#181818;stroke-width:1.0;"/><path d="M45.4688,32.5352 Q44.8906,32.832 44.25,32.9727 Q43.6094,33.1289 42.9063,33.1289 Q40.4063,33.1289 39.0781,31.4883 Q37.7656,29.832 37.7656,26.707 Q37.7656,23.582 39.0781,21.9258 Q40.4063,20.2695 42.9063,20.2695 Q43.6094,20.2695 44.25,20.4258 Q44.9063,20.582 45.4688,20.8789 L45.4688,23.5977 Q44.8438,23.0195 44.25,22.7539 Q43.6563,22.4727 43.0313,22.4727 Q41.6875,22.4727 41,23.5508 Q40.3125,24.6133 40.3125,26.707 Q40.3125,28.8008 41,29.8789 Q41.6875,30.9414 43.0313,30.9414 Q43.6563,30.9414 44.25,30.6758 Q44.8438,30.3945 45.4688,29.8164 L45.4688,32.5352 Z " fill="#000000"/><text fill="#D9B8FF" font-family="Helvetica" font-size="17" lengthAdjust="spacing" textLength="159" x="61.5" y="32.7798">kubernetes_cluster</text></g><!--class kubernetes_cluster_role--><g id="elem_kubernetes_cluster_role"><rect codeLine="24" fill="#3D176E" height="39.7891" id="kubernetes_cluster_role" rx="2.5" ry="2.5" style="stroke:#000D19;stroke-width:0.5;" width="242" x="7" y="106.79"/><ellipse cx="22" cy="126.6845" fill="#ADD1B2" rx="11" ry="11" style="stroke:#181818;stroke-width:1.0;"/><path d="M24.9688,132.3252 Q24.3906,132.622 23.75,132.7627 Q23.1094,132.9189 22.4063,132.9189 Q19.9063,132.9189 18.5781,131.2783 Q17.2656,129.622 17.2656,126.497 Q17.2656,123.372 18.5781,121.7158 Q19.9063,120.0595 22.4063,120.0595 Q23.1094,120.0595 23.75,120.2158 Q24.4063,120.372 24.9688,120.6689 L24.9688,123.3877 Q24.3438,122.8095 23.75,122.5439 Q23.1563,122.2627 22.5313,122.2627 Q21.1875,122.2627 20.5,123.3408 Q19.8125,124.4033 19.8125,126.497 Q19.8125,128.5908 20.5,129.6689 Q21.1875,130.7314 22.5313,130.7314 Q23.1563,130.7314 23.75,130.4658 Q24.3438,130.1845 24.9688,129.6064 L24.9688,132.3252 Z " fill="#000000"/><text fill="#D9B8FF" font-family="Helvetica" font-size="17" lengthAdjust="spacing" textLength="200" x="41" y="132.5698">kubernetes_cluster_role</text></g><!--link kubernetes_cluster to kubernetes_cluster_role--><g id="link_kubernetes_cluster_kubernetes_cluster_role"><path codeLine="26" d="M128,47.22 C128,64.36 128,83.27 128,100.41 " fill="none" id="kubernetes_cluster-to-kubernetes_cluster_role" style="stroke:#1A83AF;stroke-width:2.0;"/><polygon fill="#1A83AF" points="128,106.41,132,97.41,128,101.41,124,97.41,128,106.41" style="stroke:#1A83AF;stroke-width:2.0;"/></g><!--SRC=[XP91QuD048Nl-HKBdWDQQTLBmGYXlOJIz5PAMDtPkAYxCZisfAN_lJ5forPZSfttpSnxmvHA08EcfJrheCa1xSnMIhSSUSDIHBFBJ6sGUL9o6KP3SMaqNGLMl07s0FKxa2hua7WfLL5fi9RTEDA25zKMJQV5QJmXr_OWWIQ7ocfkRKg4Aky873CYoMCfX-Hmg1UA8Bg34MPG0FuWlk-B81aYLrTTpFr7hDK7iC0zsieGZ6oELXofYovxmZ4v2lghJtfyua8elMMtJktvv0aruB_wkkJ2x7fQyjgwQom1Wg5z2zae5IInaD5P-74ABlhBiQexFAe60hifwgvlOv-phqbnWwQ68t6cSVxg1MaSfikt-VrKxpS0]--></g></svg>

<svg xmlns="http://www.w3.org/2000/svg" width="256" height="152" viewBox="0 0 256 152"><rect width="201" height="39.789" x="27.5" y="7" fill="#3D176E" rx="2.5" ry="2.5" style="stroke:#000d19;stroke-width:.5"/><circle cx="42.5" cy="26.895" r="11" fill="#ADD1B2" style="stroke:#181818;stroke-width:1"/><path d="M45.469 32.535q-.578.297-1.219.438-.64.156-1.344.156-2.5 0-3.828-1.64-1.312-1.657-1.312-4.782t1.312-4.781q1.328-1.656 3.828-1.656.703 0 1.344.156.656.156 1.219.453v2.719q-.625-.578-1.219-.844-.594-.281-1.219-.281-1.343 0-2.031 1.078-.687 1.062-.687 3.156T41 29.879q.688 1.062 2.031 1.062.625 0 1.219-.265.594-.281 1.219-.86z"/><text x="61.5" y="32.78" fill="#D9B8FF" font-family="Helvetica" font-size="17" textLength="159">kubernetes_cluster</text><rect width="242" height="39.789" x="7" y="106.79" fill="#3D176E" rx="2.5" ry="2.5" style="stroke:#000d19;stroke-width:.5"/><circle cx="22" cy="126.684" r="11" fill="#ADD1B2" style="stroke:#181818;stroke-width:1"/><path d="M24.969 132.325q-.578.297-1.219.438-.64.156-1.344.156-2.5 0-3.828-1.64-1.312-1.657-1.312-4.782t1.312-4.781q1.328-1.656 3.828-1.656.703 0 1.344.156.656.156 1.219.453v2.719q-.625-.579-1.219-.844-.594-.281-1.219-.281-1.343 0-2.031 1.078-.687 1.062-.687 3.156t.687 3.172q.688 1.062 2.031 1.062.625 0 1.219-.265.594-.281 1.219-.86z"/><text x="41" y="132.57" fill="#D9B8FF" font-family="Helvetica" font-size="17" textLength="200">kubernetes_cluster_role</text><path fill="none" d="M128 47.22v53.19" style="stroke:#1a83af;stroke-width:2"/><path fill="#1A83AF" d="m128 106.41 4-9-4 4-4-4z" style="stroke:#1a83af;stroke-width:2"/></svg>
